X: 1688
T: Segâh Aranağme (Yürüksemâî)
C: ?
O: Turkey
F: http://compmusic.upf.edu/node/140
N: segah--aranagme--yuruksemai_ii--1--
N: makam= segah
N: form= aranagme
N: usul= yuruksemai_ii = 6/8
M: 6/8
L: 1/16
K: C _1/4B _1/4e ^f 
Q: 1/4=180
%%MIDI tuningsystem comma53
g2g2 f2g2 e2d2  | d2d2 e2f6  | a2g2 f2g2 e2d2  | d12  | \
w:  ARANAĞME  |   |   |   | 
B2B2 d2d2 d2c2  | 
w:   | 
B2B2 c2d6  | e2c4d2 d2c2  | B4 G2B6  | g2g2 f2g2 e2d2  | \
w:   |   |   |  ARANAĞME  | 
d2d2 e2f6  | 
w:   | 
a2g2 f2g2 e2d2  | d12  | B2B2 d2d2 d2c2  | \
w:   |   |   | 
B2B2 c2d6  | e2c4d2 d2c2  | 
w:   |   | 
B4 G2B6  | |


